images/computer/SVG/dev-perso.svg

<svg width="220" height="220" viewBox="0 0 220 220" fill="none" xmlns="http://www.w3.org/2000/svg">
<circle cx="110" cy="110" r="110" fill="#FFD200"/>
<g clip-path="url(#clip0_730_3930)">
<path d="M66.3202 59.4297V67.1895C68.0388 65.787 69.7574 64.1485 71.909 63.4407C76.8942 61.8022 79.6755 65.8525 84.7132 64.8956C85.6447 48.904 100.942 37.7885 116.553 41.8388C126.917 44.526 134.815 54.1603 135.301 64.8956C136.626 64.8039 138.095 65.0529 139.407 64.8301C140.561 64.6335 141.939 63.7028 143.12 63.3751C147.58 62.1299 150.493 64.4369 153.694 67.1895V59.4297H148.38C147.2 59.4297 146.137 56.6508 147.239 55.707L161.158 41.7733C161.867 41.0393 162.824 40.8689 163.769 41.1835L178.541 55.7201C179.643 56.6508 178.594 59.4428 177.4 59.4428H172.087V78.541C172.087 80.0877 167.875 81.3461 167.482 77.9773C166.721 71.4365 168.046 63.4407 167.508 56.7425C167.797 54.8812 169.423 54.8681 170.945 54.7108L163.008 46.833L154.861 54.7108C156.383 54.855 157.997 54.8812 158.298 56.7425C158.981 61.1337 157.629 67.2813 158.325 71.6462C158.495 72.6686 159.899 74.1367 160.371 75.3427C162.129 79.878 159.571 81.2281 159.164 84.8721C158.626 89.7745 161.88 97.3639 166.091 100.077C168.164 101.414 170.696 101.847 172.231 103.997C175.222 108.178 175.222 120.578 172.454 124.851C170.683 127.578 168.505 127.63 166.104 129.124C161.932 131.72 158.653 139.545 159.177 144.33C159.545 147.633 161.788 149.127 160.634 153.243C159.558 157.07 151.909 164.49 148.131 165.735C143.749 167.177 142.687 164.87 139.131 164.358C134.671 163.716 127.206 166.285 124.254 169.733C122.313 172.013 122.155 175.159 119.492 177.047C115.779 179.668 104.733 179.642 100.915 177.27C98.239 175.592 98.0947 173.272 96.6385 170.925C94.0016 166.679 85.9858 163.742 81.1711 164.332C78.9933 164.594 76.7893 166.311 74.5328 166.311C69.4819 166.311 59.5245 156.769 59.1441 151.827C58.8948 148.577 60.5872 147.004 60.8758 144.356C61.4006 139.571 58.1339 131.746 53.9489 129.151C51.535 127.656 49.3572 127.591 47.5993 124.877C44.818 120.604 44.8311 108.204 47.8223 104.023C49.3572 101.873 51.8761 101.44 53.962 100.103C58.1601 97.3901 61.4268 89.8007 60.8889 84.8983C60.4822 81.2543 57.924 79.9042 59.682 75.3689C60.1543 74.1629 61.558 72.6949 61.7285 71.6724C62.4239 67.3075 61.0726 61.1599 61.7548 56.7688C62.0434 54.9074 63.6702 54.8943 65.192 54.737L57.2549 46.8592L49.108 54.737C50.6298 54.8812 52.2434 54.9074 52.5452 56.7688C52.0073 63.4669 53.3323 71.4627 52.5714 78.0036C52.1778 81.3723 47.9666 80.1139 47.9666 78.5672V59.469H42.6009C41.4202 59.469 40.3575 56.6901 41.4595 55.7463L55.392 41.7733C56.1004 41.0393 57.0581 40.8689 58.0027 41.1835L72.7748 55.7201C73.8769 56.6508 72.8273 59.4428 71.6335 59.4428H66.3202V59.4297ZM89.3049 64.4631C89.1737 65.787 89.3968 67.2813 89.3049 68.6314C92.0862 68.9067 95.3004 68.2513 97.1895 66.0229C98.4358 64.5548 98.4883 61.8022 100.666 61.7104C101.821 61.6711 104.602 63.1392 106.084 63.4931C108.787 64.1354 110.728 64.1747 113.457 63.6111C115.228 63.2441 118.456 61.4876 119.846 61.7891C121.368 62.1168 121.302 63.5718 121.906 64.6204C123.848 67.9629 126.917 68.9329 130.683 68.6314C131.772 53.4393 118.01 42.0093 103.224 46.7936C95.7464 49.2186 90.0396 56.677 89.2918 64.4631H89.3049ZM126.065 72.957C122.536 72.3672 119.833 70.0995 117.878 67.2157C112.788 69.1426 107.213 69.1295 102.122 67.2157C100.168 70.0864 97.465 72.3672 93.936 72.957C93.2275 80.7562 95.1823 88.2277 102.529 92.029C111.371 96.6037 122.483 92.1994 125.317 82.6175C126.275 79.4061 126.183 76.2733 126.078 72.957H126.065ZM84.7132 69.4834C83.0209 69.9946 81.2236 69.7325 79.5312 69.3523C76.2252 68.5921 75.3331 66.5997 71.804 68.7887C69.705 70.0864 65.3757 74.3202 64.2999 76.5093C63.0536 79.0653 64.6803 80.5334 65.2707 83.0239C66.7532 89.3681 62.6731 99.6447 57.3336 103.433C54.8279 105.216 51.758 105.176 50.8922 108.479C50.0919 111.52 50.0263 116.423 50.5904 119.516C51.4563 124.327 54.4343 123.475 57.6747 125.926C61.8991 129.124 65.9398 138.156 65.7561 143.412C65.6643 145.981 63.7358 149.114 63.7358 150.883C63.7358 153.518 71.1874 160.78 73.7194 161.304C75.6217 161.698 77.6683 160.203 79.5312 159.784C86.1432 158.276 96.9796 162.523 100.574 168.356C101.361 169.628 102.28 172.551 103.408 173.272C104.89 174.229 110.02 174.412 111.87 174.281C112.88 174.216 115.622 173.822 116.435 173.39C117.721 172.708 119.033 168.776 120.109 167.295C123.848 162.209 134.356 158.368 140.483 159.771C142.516 160.229 144.392 161.763 146.517 161.226C148.879 160.623 155.622 154.003 156.16 151.618C156.554 149.848 154.205 145.601 154.245 142.848C154.297 137.88 158.023 129.544 161.88 126.332C163.559 124.93 167.6 123.58 168.479 122.308C170.04 120.054 169.909 112.897 169.463 110.144C168.571 104.56 166.196 106.068 162.51 103.315C157.301 99.4088 153.274 89.355 154.743 83.0239C155.084 81.5558 156.357 79.2881 156.265 77.9904C156.081 75.4737 148.748 68.3299 146.294 67.8187C144.392 67.4255 142.346 68.9198 140.483 69.3392C138.79 69.7325 136.993 69.9946 135.301 69.4703C138.252 71.9084 140.168 74.4906 139.905 78.5279C139.827 79.8256 139.223 80.8611 139.158 82.1063C155.884 96.7216 158.456 122.059 145.468 140.083C132.113 158.617 106.609 163.808 87.0353 151.722C62.3058 136.465 59.026 101.362 80.8562 82.1063C80.7906 80.8611 80.2003 79.8256 80.1084 78.5279C79.846 74.4906 81.7746 71.9084 84.7132 69.4703V69.4834ZM89.3049 73.2192C84.6214 73.3371 82.9553 79.7076 87.1928 81.7917C90.6693 83.5089 89.3705 81.7655 89.3049 79.6814C89.2393 77.5972 89.3836 75.3558 89.3049 73.2061V73.2192ZM130.407 82.4078C136.389 82.4602 136.94 73.9532 131.116 73.2192C130.538 73.1405 130.748 73.2323 130.696 73.6386C130.328 76.3257 131.05 79.6027 130.407 82.4078ZM98.4752 98.465L98.3702 95.0438C95.3397 92.999 93.1751 90.2726 91.3253 87.1529C88.8064 86.9694 86.4712 87.0349 84.241 85.6192C83.034 85.5144 78.1274 91.9635 77.3009 93.2349C71.8171 101.637 69.9149 111.861 71.5023 121.758L73.3783 113.723C75.5036 108.466 81.8533 106.054 86.6286 103.708C90.4725 101.821 94.5001 100.012 98.4883 98.465H98.4752ZM148.512 121.469C150.702 108.335 146.176 94.4802 136.153 85.6979L135.786 85.6192C133.556 87.048 131.207 86.9694 128.689 87.1529C126.852 90.3119 124.635 92.9466 121.644 95.0438L121.539 98.465C125.527 100.012 129.541 101.821 133.398 103.708C138.174 106.054 144.523 108.466 146.649 113.723C147.593 116.069 147.541 118.245 148.092 120.617C148.17 120.932 148.092 121.548 148.525 121.469H148.512ZM116.908 97.3377C112.473 98.9238 107.554 98.9369 103.106 97.3377V102.07C103.106 102.45 108.078 107.208 108.406 107.405C109.194 107.85 110.833 107.85 111.594 107.405C111.922 107.221 116.894 102.45 116.894 102.07V97.3377H116.908ZM94.487 105.098L100.994 113.12L104.234 110.092L98.2128 103.8L94.487 105.111V105.098ZM125.527 105.098L121.801 103.787L115.779 110.079L119.02 113.107L125.527 105.084V105.098ZM90.4069 107.431L89.5804 107.523C85.5529 109.777 78.6129 111.481 77.3009 116.515C76.094 121.168 75.9628 126.804 74.9657 131.589C80.0953 142.455 90.8268 150.897 102.805 152.771C102.175 151.342 100.561 150.359 100.771 148.616L105.048 119.962C104.969 119.687 103.382 118.088 103.198 118.048C102.673 117.956 101.361 120.316 99.2099 118.612L90.4069 107.444V107.431ZM130.197 107.444H129.594L120.791 118.599C118.639 120.303 117.327 117.943 116.803 118.035C116.606 118.074 115.032 119.674 114.953 119.949L119.23 148.603C119.44 150.346 117.826 151.342 117.196 152.758C129.187 150.897 139.879 142.442 145.035 131.576C144.038 126.804 143.92 121.155 142.7 116.501M108.774 112.333C108.406 112.438 106.517 114.326 106.583 114.679L110.112 117.996L113.431 114.47C112.132 112.91 111.03 111.665 108.761 112.333H108.774ZM110.545 123.803H109.469L105.664 147.751C105.573 148.314 105.861 148.642 106.084 149.088C106.307 149.533 108.787 152.902 109.141 153.204C109.364 153.413 109.521 153.649 109.876 153.649C110.387 153.702 110.545 153.518 110.873 153.204C111.437 152.692 114.284 148.655 114.336 148.026L110.532 123.803H110.545Z" fill="#59210F"/>
</g>
<defs>
<clipPath id="clip0_730_3930">
<rect width="138" height="138" fill="white" transform="translate(41 41)"/>
</clipPath>
</defs>
</svg>

<?xml version="1.0" encoding="UTF-8"?>
<svg id="Calque_2" data-name="Calque 2" xmlns="http://www.w3.org/2000/svg" viewBox="0 0 220 220">
  <defs>
    <style>
      .cls-1 {
        fill: #59210f;
      }

      .cls-2 {
        fill: #ffd207;
      }
    </style>
  </defs>
  <g id="Calque_1-2" data-name="Calque 1">
    <circle class="cls-2" cx="110" cy="110" r="110"/>
    <path class="cls-1" d="M66.31,59.43v7.75c1.72-1.4,3.43-3.04,5.59-3.75,4.98-1.64,7.76,2.41,12.81,1.45.93-16,16.22-27.1,31.84-23.06,10.36,2.68,18.27,12.32,18.74,23.06,1.33-.09,2.79.15,4.1-.07,1.16-.2,2.54-1.13,3.72-1.46,4.46-1.24,7.37,1.06,10.58,3.82v-7.75h-5.32c-1.18,0-2.24-2.78-1.14-3.72l13.92-13.95c.7-.73,1.67-.9,2.61-.58l14.77,14.53c1.1.94.05,3.72-1.14,3.72h-5.32v19.1c0,1.55-4.21,2.8-4.61-.57-.76-6.55.57-14.54.02-21.24.29-1.86,1.91-1.88,3.43-2.03l-7.94-7.88-8.15,7.88c1.52.15,3.14.17,3.43,2.03.69,4.39-.67,10.53.03,14.9.16,1.03,1.58,2.49,2.05,3.7,1.76,4.54-.8,5.88-1.2,9.52-.54,4.9,2.72,12.49,6.92,15.2,2.08,1.34,4.6,1.77,6.14,3.92,2.99,4.19,2.99,16.58.22,20.86-1.77,2.72-3.94,2.78-6.36,4.28-4.18,2.59-7.45,10.41-6.92,15.2.37,3.3,2.61,4.8,1.45,8.92-1.08,3.83-8.73,11.25-12.5,12.49-4.38,1.45-5.44-.86-9-1.38-4.46-.64-11.93,1.92-14.87,5.38-1.95,2.28-2.1,5.43-4.76,7.31-3.71,2.62-14.76,2.6-18.58.22-2.68-1.67-2.82-4-4.28-6.35-2.63-4.24-10.65-7.18-15.46-6.6-2.18.26-4.38,1.98-6.64,1.98-5.05,0-15.01-9.55-15.39-14.49-.25-3.26,1.44-4.82,1.74-7.48.53-4.78-2.75-12.61-6.92-15.2-2.41-1.5-4.59-1.55-6.36-4.28-2.78-4.27-2.77-16.67.22-20.86,1.53-2.15,4.06-2.58,6.14-3.92,4.2-2.71,7.47-10.3,6.92-15.2-.4-3.64-2.96-4.99-1.2-9.52.47-1.2,1.88-2.67,2.05-3.7.7-4.37-.66-10.52.03-14.9.29-1.86,1.91-1.88,3.43-2.03l-7.94-7.88-8.15,7.88c1.52.15,3.14.17,3.43,2.03-.54,6.7.78,14.69.02,21.24-.39,3.37-4.61,2.11-4.61.57v-19.1h-5.32c-1.18,0-2.24-2.78-1.14-3.72l13.92-13.95c.7-.73,1.67-.9,2.61-.58l14.77,14.53c1.1.94.05,3.72-1.14,3.72h-5.32ZM89.31,64.46c-.13,1.33.09,2.81,0,4.16,2.78.27,6-.39,7.88-2.61,1.24-1.47,1.29-4.22,3.48-4.31,1.15-.04,3.93,1.43,5.42,1.78,2.7.64,4.65.69,7.38.12,1.77-.37,5-2.12,6.39-1.82,1.52.33,1.46,1.79,2.06,2.83,1.94,3.34,5.01,4.31,8.78,4.01,1.09-15.19-12.67-26.63-27.46-21.84-7.48,2.42-13.18,9.88-13.93,17.67ZM126.07,72.96c-3.53-.59-6.23-2.86-8.19-5.74-5.09,1.92-10.67,1.92-15.75,0-1.96,2.87-4.66,5.15-8.19,5.74-.7,7.81,1.24,15.27,8.59,19.07,8.84,4.58,19.95.17,22.79-9.41.95-3.22.86-6.34.76-9.67ZM84.71,69.49c-1.69.51-3.49.25-5.18-.14-3.31-.76-4.19-2.75-7.73-.56-2.1,1.3-6.43,5.53-7.5,7.72-1.25,2.55.39,4.03.97,6.51,1.48,6.34-2.6,16.62-7.94,20.41-2.51,1.78-5.57,1.74-6.45,5.05-.81,3.04-.86,7.95-.3,11.04.87,4.81,3.85,3.96,7.09,6.42,4.22,3.2,8.27,12.22,8.08,17.48-.09,2.56-2.02,5.7-2.02,7.48,0,2.64,7.45,9.9,9.99,10.42,1.9.39,3.95-1.1,5.82-1.53,6.61-1.51,17.45,2.73,21.04,8.58.78,1.27,1.7,4.19,2.83,4.92,1.48.95,6.61,1.14,8.47,1.01,1.01-.07,3.75-.46,4.57-.89,1.29-.69,2.6-4.62,3.68-6.09,3.74-5.09,14.25-8.93,20.37-7.53,2.03.46,3.91,2,6.03,1.45,2.37-.6,9.11-7.22,9.65-9.61.4-1.78-1.95-6.02-1.92-8.77.06-4.97,3.77-13.31,7.63-16.52,1.68-1.4,5.72-2.75,6.61-4.03,1.56-2.25,1.42-9.41.98-12.16-.9-5.58-3.27-4.07-6.96-6.83-5.21-3.9-9.24-13.95-7.76-20.29.34-1.47,1.62-3.74,1.52-5.04-.18-2.52-7.52-9.66-9.97-10.17-1.9-.39-3.95,1.1-5.82,1.53-1.7.39-3.5.65-5.18.14,2.95,2.43,4.87,5.02,4.61,9.06-.08,1.29-.68,2.34-.75,3.58,16.72,14.62,19.29,39.95,6.31,57.98-13.35,18.53-38.85,23.72-58.43,11.64-24.73-15.26-28.01-50.36-6.18-69.62-.07-1.24-.66-2.28-.75-3.58-.26-4.03,1.66-6.62,4.61-9.06ZM89.3,73.22c-4.69.11-6.35,6.49-2.12,8.58,3.48,1.72,2.18-.03,2.11-2.11s.08-4.32.01-6.47ZM130.41,82.41c5.98.05,6.54-8.46.71-9.18-.58-.07-.37.02-.42.42-.37,2.69.35,5.97-.29,8.77ZM98.47,98.46l-.11-3.42c-3.03-2.04-5.19-4.77-7.05-7.89-2.52-.18-4.86-.12-7.09-1.53-1.2-.1-6.11,6.34-6.94,7.61-5.48,8.4-7.38,18.63-5.8,28.52l1.87-8.03c2.13-5.25,8.48-7.67,13.26-10.02,3.85-1.89,7.87-3.7,11.85-5.24ZM148.51,121.46c2.19-13.13-2.34-26.99-12.36-35.77l-.37-.08c-2.23,1.42-4.58,1.36-7.09,1.54-1.83,3.15-4.05,5.8-7.05,7.89l-.11,3.42c3.98,1.54,8.01,3.35,11.85,5.24,4.78,2.35,11.13,4.76,13.26,10.02.95,2.35.9,4.52,1.44,6.89.07.32,0,.93.43.86ZM116.9,97.34c-4.43,1.59-9.36,1.59-13.8,0v4.74c0,.38,4.98,5.14,5.3,5.33.79.45,2.42.44,3.19,0,.33-.19,5.3-4.95,5.3-5.33v-4.74ZM94.48,105.1l6.51,8.02,3.24-3.03-6.02-6.29-3.73,1.31ZM125.52,105.1l-3.73-1.31-6.02,6.29,3.24,3.03,6.51-8.02ZM90.41,107.43l-.82.09c-4.03,2.25-10.96,3.95-12.28,9-1.21,4.65-1.34,10.3-2.33,15.07,5.13,10.87,15.87,19.31,27.83,21.18-.64-1.43-2.24-2.42-2.03-4.16l4.28-28.66c-.08-.28-1.66-1.88-1.85-1.91-.52-.09-1.83,2.26-3.99.56l-8.81-11.17ZM130.19,107.44h-.6s-8.81,11.16-8.81,11.16c-2.16,1.7-3.47-.65-3.99-.56-.19.03-1.77,1.63-1.85,1.91l4.28,28.66c.21,1.74-1.4,2.74-2.03,4.16,11.99-1.87,22.68-10.31,27.83-21.18-.99-4.77-1.12-10.42-2.33-15.07M108.76,112.33c-.36.11-2.25,2-2.19,2.34l3.53,3.32,3.32-3.53c-1.3-1.56-2.4-2.81-4.66-2.13ZM110.54,123.8h-1.08l-3.8,23.95c-.09.57.19.89.41,1.33s2.71,3.81,3.06,4.12c.23.21.38.44.74.44.52.05.66-.14,1-.44.56-.51,3.42-4.55,3.47-5.17l-3.8-24.23Z"/>
  </g>
</svg>
